src/assets/skills/google-charts.svg

<svg height="100pt" viewBox="0 0 100 100" width="100pt" xmlns="http://www.w3.org/2000/svg"><path d="m99.011 51.15c0-3.399-.276-6.816-.864-10.16h-47.16v19.254h27.007c-1.121 6.209-4.722 11.703-9.994 15.193v12.493h16.111c9.462-8.708 14.9-21.568 14.9-36.78z" fill="#4285f4"/><path d="m50.987 100c13.485 0 24.857-4.428 33.143-12.07l-16.112-12.493c-4.483 3.05-10.27 4.777-17.012 4.777-13.044 0-24.104-8.8-28.072-20.632h-16.626v12.879c8.487 16.883 25.775 27.539 44.679 27.539z" fill="#34a853"/><path d="m22.916 59.582c-2.095-6.209-2.095-12.933 0-19.143v-12.878h-16.608c-7.092 14.128-7.092 30.772 0 44.9z" fill="#fbbc04"/><path d="m50.987 19.79c7.129-.111 14.018 2.572 19.18 7.495l14.275-14.275c-9.039-8.487-21.035-13.154-33.455-13.007-18.904 0-36.192 10.656-44.679 27.558l16.608 12.878c3.95-11.849 15.028-20.649 28.071-20.649z" fill="#ea4335"/></svg>

<?xml version="1.0" encoding="UTF-8" standalone="no"?><!-- Generator: Gravit.io --><svg xmlns="http://www.w3.org/2000/svg" xmlns:xlink="http://www.w3.org/1999/xlink" style="isolation:isolate" viewBox="0 0 100 100" width="100pt" height="100pt"><g><path d=" M 99.011 51.15 C 99.011 47.751 98.735 44.334 98.147 40.99 L 50.987 40.99 L 50.987 60.244 L 77.994 60.244 C 76.873 66.453 73.272 71.947 68 75.437 L 68 87.93 L 84.111 87.93 C 93.573 79.222 99.011 66.362 99.011 51.15 Z " fill="rgb(66,133,244)"/><path d=" M 50.987 100 C 64.472 100 75.844 95.572 84.13 87.93 L 68.018 75.437 C 63.535 78.487 57.748 80.214 51.006 80.214 C 37.962 80.214 26.902 71.414 22.934 59.582 L 6.308 59.582 L 6.308 72.461 C 14.795 89.344 32.083 100 50.987 100 Z " fill="rgb(52,168,83)"/><path d=" M 22.916 59.582 C 20.821 53.373 20.821 46.649 22.916 40.439 L 22.916 27.561 L 6.308 27.561 C -0.784 41.689 -0.784 58.333 6.308 72.461 L 22.916 59.582 Z " fill="rgb(251,188,4)"/><path d=" M 50.987 19.79 C 58.116 19.679 65.005 22.362 70.167 27.285 L 70.167 27.285 L 84.442 13.01 C 75.403 4.523 63.407 -0.144 50.987 0.003 C 32.083 0.003 14.795 10.659 6.308 27.561 L 22.916 40.439 C 26.866 28.59 37.944 19.79 50.987 19.79 Z " fill="rgb(234,67,53)"/></g></svg>
